!!!!SEGMENT: pl-wtm--r-131-m--007_moniuszko-stanislaw-msza-swieta-slowa-odynca-agnus.krn
!!!id: 18xx:1730
!!!COM: Moniuszko, Stanisław
!!!OTL: Msza święta słowa Odyńca – Agnus
!!!PDT:
!!!SMS-siglum: PL-Wtm
!!!SMS-shelfmark: R 131/M
!!!NIFC-rismID: 1001097550
!!!URL-scan: http://repozytorium.nifc.pl/skany/pl-wtm-nut--r131m
!!!ONB-nifc: UWAGA: części Mszy: 1. Kyrie, 2. Gloria, 3. Graduale, 4. Credo, 5. Sanctus, 6. Benedictus, 7. Agnus
!!!SMS-variant:
!!!SMS-altvar:
!!!OMD: Andantino.
**kern	**kern	**dynam	**kern	**dynam	**kern	**dynam	**kern	**dynam	**kern	**dynam	**kern	**dynam
*part6	*part6	*part6	*part5	*part5	*part4	*part4	*part3	*part3	*part2	*part2	*part1	*part1
*staff7	*staff6	*	*staff5	*	*staff4	*	*staff3	*	*staff2	*	*staff1	*
*	*	*	*group1	*	*group1	*	*group1	*	*group1	*	*group1	*
*>[A,B,B1,B,B2,C,D,D1,D,D2,E]	*>[A,B,B1,B,B2,C,D,D1,D,D2,E]	*	*>[A,B,B1,B,B2,C,D,D1,D,D2,E]	*	*>[A,B,B1,B,B2,C,D,D1,D,D2,E]	*	*>[A,B,B1,B,B2,C,D,D1,D,D2,E]	*	*>[A,B,B1,B,B2,C,D,D1,D,D2,E]	*	*>[A,B,B1,B,B2,C,D,D1,D,D2,E]	*
*>A	*>A	*	*>A	*	*>A	*	*>A	*	*>A	*	*>A	*
*I"Organ.	*	*	*I"Cbs.	*	*I"Vcll.	*	*I"Vla.	*	*I"V. 2.	*	*I"V. 1.	*
*clefF4	*clefG2	*	*clefF4	*	*clefF4	*	*clefC3	*	*clefG2	*	*clefG2	*
*	*	*	*Trd0c0	*	*	*	*	*	*	*	*	*
*k[]	*k[]	*	*k[]	*	*k[]	*	*k[]	*	*k[]	*	*k[]	*
*M2/4	*M2/4	*	*M2/4	*	*M2/4	*	*M2/4	*	*M2/4	*	*M2/4	*
*all\right	*all\right	*	*all\right	*	*all\right	*	*	*	*all\right	*	*all\right	*
=1	=1	=1	=1	=1	=1	=1	=1	=1	=1	=1	=1	=1
!	!	!	!	!	!	!	!LO:TX:a:t=4	!	!	!	!	!
2ryy	2ryy	.	2r	.	2r	.	2r	.	2r	.	2r	.
=2	=2	=2	=2	=2	=2	=2	=2	=2	=2	=2	=2	=2
2ryy	2ryy	.	2r	.	2r	.	2r	.	2r	.	2r	.
=3	=3	=3	=3	=3	=3	=3	=3	=3	=3	=3	=3	=3
2ryy	2ryy	.	2r	.	2r	.	2r	.	2r	.	2r	.
=4	=4	=4	=4	=4	=4	=4	=4	=4	=4	=4	=4	=4
2ryy	2ryy	.	2r	.	2r	.	2r	.	2r	.	2r	.
=5	=5	=5	=5	=5	=5	=5	=5	=5	=5	=5	=5	=5
2ryy	2ryy	.	2r	.	2r	.	4e 4c\	p	4e 4c/	p	(4a/	p
.	.	.	.	.	.	.	8e\L	.	8g#X|/L	.	8b|/L)	.
.	.	.	.	.	.	.	8e\J	.	8g#|/J	.	8b|/J	.
=6	=6	=6	=6	=6	=6	=6	=6	=6	=6	=6	=6	=6
2ryy	2ryy	.	2r	.	2r	.	4.a\	.	2a/	.	8.cc\L	.
.	.	.	.	.	.	.	.	.	.	.	16cc\Jk	.
.	.	.	.	.	.	.	.	.	.	.	([<4ee^\	.
.	.	.	.	.	.	.	8g\	.	.	.	.	.
=7	=7	=7	=7	=7	=7	=7	=7	=7	=7	=7	=7	=7
2ryy	2ryy	.	2r	.	2r	.	4f\	.	4a/	.	8ee\L]	.
.	.	.	.	.	.	.	.	.	.	.	8dd\)	.
!	!	!	!	!	!	!	!	!	!	!	!	!
.	.	.	.	.	.	.	8f\L	.	8a/L	.	8cc|\	.
!	!	!	!	!	!	!	!	!	!	!	!	!
.	.	.	.	.	.	.	8f\J	.	8a/J	.	8cc|\J	.
=8	=8	=8	=8	=8	=8	=8	=8	=8	=8	=8	=8	=8
2ryy	2ryy	.	2r	.	2r	.	4.e\	.	4.g#X/	.	(4ee\	.
.	.	.	.	.	.	.	.	.	.	.	8b\)	.
.	.	.	.	.	.	.	8r	.	8r	.	8r	.
=9	=9	=9	=9	=9	=9	=9	=9	=9	=9	=9	=9	=9
!	!	!	!	!	!	!	!LO:TX:a:t=4	!	!	!	!	!
2ryy	2ryy	.	2r	.	2r	.	2r	.	2r	.	2r	.
=10	=10	=10	=10	=10	=10	=10	=10	=10	=10	=10	=10	=10
2ryy	2ryy	.	2r	.	2r	.	2r	.	2r	.	2r	.
=11	=11	=11	=11	=11	=11	=11	=11	=11	=11	=11	=11	=11
2ryy	2ryy	.	2r	.	2r	.	2r	.	2r	.	2r	.
=12	=12	=12	=12	=12	=12	=12	=12	=12	=12	=12	=12	=12
2ryy	2ryy	.	2r	.	2r	.	2r	.	2r	.	2r	.
=13	=13	=13	=13	=13	=13	=13	=13	=13	=13	=13	=13	=13
!	!	!	!	!	!	!	!	!LO:DY:rj	!	!LO:DY:rj	!	!LO:DY:rj
2ryy	2ryy	.	2ryy	.	2ryy	.	4e 4c\	p	4e 4c/	p	4a/	p
.	.	.	.	.	.	.	8e\L	.	8g#X/L	.	8b/L	.
.	.	.	.	.	.	.	8e\J	.	8g#/J	.	8b/J	.
=14	=14	=14	=14	=14	=14	=14	=14	=14	=14	=14	=14	=14
2ryy	2ryy	.	2ryy	.	2ryy	.	4.a\	.	2a/	.	8.cc\L	.
.	.	.	.	.	.	.	.	.	.	.	16dd\Jk	.
.	.	.	.	.	.	.	.	.	.	.	4ee\	.
.	.	.	.	.	.	.	8g\	.	.	.	.	.
=15	=15	=15	=15	=15	=15	=15	=15	=15	=15	=15	=15	=15
2ryy	2ryy	.	2ryy	.	2ryy	.	8f\L	.	8a/L	.	8dd/L	.
.	.	.	.	.	.	.	8d\	.	8f/J	.	8b/	.
.	.	.	.	.	.	.	8c\	.	8e/L	.	8a/	.
.	.	.	.	.	.	.	8B\J	.	8e/J	.	8g#X/J	.
=16!|:	=16!|:	=16!|:	=16!|:	=16!|:	=16!|:	=16!|:	=16!|:	=16!|:	=16!|:	=16!|:	=16!|:	=16!|:
*>B	*>B	*	*>B	*	*>B	*	*>B	*	*>B	*	*>B	*
2ryy	2ryy	.	2ryy	.	2ryy	.	(8A\L	.	(8c/L	.	4a/	.
.	.	.	.	.	.	.	8e\J)	.	8e/J)	.	.	.
.	.	.	.	.	.	.	8g\	.	8a/	.	8r	.
.	.	.	.	.	.	.	8r	.	8r	.	8ee\	.
!!LO:LB:g=original
=17	=17	=17	=17	=17	=17	=17	=17	=17	=17	=17	=17	=17
2ryy	2ryy	.	2r	.	4r	.	4r	.	8.g#X^/L	.	8.b^\L	.
.	.	.	.	.	.	.	.	.	16a/K	.	16cc\K	.
.	.	.	.	.	8r	.	8r	.	8b/	.	8dd\	.
*	*	*	*	*	*clefC4	*	*	*	*	*	*	*
!	!	!	!	!	!	!	!	!	!	!	!	!
.	.	.	.	.	8e|\	.	8e|\	.	8g#/J	.	8ee\J	.
=18	=18	=18	=18	=18	=18	=18	=18	=18	=18	=18	=18	=18
2ryy	2ryy	.	2r	.	8.f^\L	.	8.f^\L	.	4.a/	.	(4cc\	.
.	.	.	.	.	8e\	.	8e\	.	.	.	.	.
.	.	.	.	.	.	.	.	.	.	.	8b\L)	.
.	.	.	.	.	16d#X\K	.	16d#X\K	.	.	.	.	.
.	.	.	.	.	8e\J	.	8e\J	.	8g#X/	.	8ee'\J	.
=19	=19	=19	=19	=19	=19	=19	=19	=19	=19	=19	=19	=19
2ryy	2ryy	.	2r	.	2r	.	4.e\	.	8.g#X^/L	.	8.b^\L	.
.	.	.	.	.	.	.	.	.	16a/K	.	16cc\K	.
.	.	.	.	.	.	.	.	.	8b/	.	8dd\	.
.	.	.	.	.	.	.	8e\	.	8g#/J	.	8ee\J	.
=20	=20	=20	=20	=20	=20	=20	=20	=20	=20	=20	=20	=20
2ryy	2ryy	.	2r	.	2r	.	8.a^\L	.	8.a^/L	.	4cc\	.
!	!	!	!	!	!	!	!	!LO:HP:t=cres.	!	!LO:HP:t=cres.	!	!LO:HP:t=cres.
.	.	.	.	.	.	.	16aK 16g\	<	16aK 16g/	<	.	<
.	.	.	.	.	.	.	8a 8f\	.	8a 8f/	.	8dd\L	.
.	.	.	.	.	.	.	8aJ 8e\	.	8aJ 8e/	.	8ee\J	.
=21	=21	=21	=21	=21	=21	=21	=21	=21	=21	=21	=21	=21
2ryy	2ryy	.	2r	.	2r	.	4a 4d^\	.	8.ddL 8.f^/	.	8.ffL 8.a 8.d^/	.
.	.	.	.	.	.	.	.	.	16cc/Jk	.	16ee/Jk	.
!	!	!	!	!	!	!	!	!LO:HP:t=dimin	!	!LO:HP:t=dimin	!	!LO:HP:t=dimin
.	.	.	.	.	.	.	8g\L	>	8b/L	>	8dd/L	>
.	.	.	.	.	.	.	8g\J	.	16a/L	.	16cc/L	.
.	.	.	.	.	.	.	.	.	16b/JJ	.	16dd/JJ	.
=22	=22	=22	=22	=22	=22	=22	=22	=22	=22	=22	=22	=22
*>B1	*>B1	*	*>B1	*	*>B1	*	*>B1	*	*>B1	*	*>B1	*
2ryy	2ryy	.	2r	.	2r	.	4c\	.	4cc\	.	4ee\	.
!	!	!	!	!	!	!	!	!	!	!	!LO:TX:a:t=1ma	!
.	.	.	.	.	.	.	8f\L	.	8a/	.	8a/L	.
!	!	!	!	!	!	!	!	!LO:DY:t=pp.	!	!LO:DY:t=pp.	!	!LO:DY:t=pp.
.	.	.	.	.	.	.	8e\J	pp	8r	pp	16b/L	pp
.	.	.	.	.	.	.	.	.	.	.	16cc/JJ	.
=23	=23	=23	=23	=23	=23	=23	=23	=23	=23	=23	=23	=23
!	!LO:TX:a:t=1ma	!	!	!	!	!	!	!	!	!	!	!
2ryy	2ryy	.	2r	.	4r	.	4d\	.	(8f/L	.	(8dd/L	.
.	.	.	.	.	.	.	.	.	8d/)	.	8b/)	.
!	!	!	!	!	!	!LO:DY:t=pp.	!	!	!	!	!	!
.	.	.	.	.	8ryy	pp	8e\L	.	8c/	.	8a/	.
*	*	*	*	*	*clefF4	*	*	*	*	*	*	*
.	.	.	.	.	8E\	.	8e\J	.	8B/J	.	8g#X/J	.
=24:|!	=24:|!	=24:|!	=24:|!	=24:|!	=24:|!	=24:|!	=24:|!	=24:|!	=24:|!	=24:|!	=24:|!	=24:|!
*>B2	*>B2	*	*>B2	*	*>B2	*	*>B2	*	*>B2	*	*>B2	*
!	!	!	!	!	!	!	!	!	!	!	!LO:TX:a:t=2da	!
!	!	!	!	!	!	!	!	!	!	!	!LO:TX:t=P:problem:skreślony takt	!
2ryy	2ryy	.	2ryy	.	2ryy	.	4c^\	.	8.cc^\L	.	4ee^\	.
.	.	.	.	.	.	.	.	.	16b\Jk	.	.	.
.	.	.	.	.	.	.	8f\L	.	4a/	.	8cc\L	.
.	.	.	.	.	.	.	8e\J	.	.	.	16dd\L	.
.	.	.	.	.	.	.	.	.	.	.	16ee\JJ	.
=25	=25	=25	=25	=25	=25	=25	=25	=25	=25	=25	=25	=25
!	!LO:TX:a:t=2da	!	!	!	!	!	!	!	!	!	!	!
2ryy	2ryy	.	2ryy	.	2ryy	.	4d\	.	(8a/L	.	(8ff\L	.
.	.	.	.	.	.	.	.	.	8f/)	.	8dd\)	.
!	!	!	!	!	!	!	!LO:TX:t=P:problem:mixed beam	!	!	!	!	!
.	.	.	.	.	.	.	8e\L	.	8e'/	.	8cc\	.
.	.	.	.	.	.	.	8E/J	.	8e/J	.	8b\J	.
!!LO:PB:g=original
=26	=26	=26	=26	=26	=26	=26	=26	=26	=26	=26	=26	=26
*>C	*>C	*	*>C	*	*>C	*	*>C	*	*>C	*	*>C	*
*	*	*	*k[f#c#g#]	*	*k[f#c#g#]	*	*k[f#c#g#]	*	*k[f#c#g#]	*	*k[f#c#g#]	*
!LO:TX:t=P:problem:brak zmiany tonacji	!LO:TX:t=P:problem:brak zmiany tonacji	!LO:DY:rj	!	!	!LO:TX:b:t=pizzi	!	!LO:TX:b:t=pizzi	!	!LO:TX:t=P:problem:przy kluczu f# cc# g#	!	!LO:TX:t=P:problem:przy kluczu f# cc# g#	!
!	!LO:SIC:v:s=2c#	!	!	!	!	!	!LO:TX:t=P:problem:przy kluczu F# c# G#	!	!	!	!	!
[2E [2AA/	[>2c/	p	[2AA/	.	16r	.	16r	.	4A/	.	4a/	.
.	.	.	.	.	16E\LL	.	16E/LL	.	.	.	.	.
.	.	.	.	.	16A\	.	16A/	.	.	.	.	.
.	.	.	.	.	16E\JJ	.	16E/JJ	.	.	.	.	.
*	*	*	*	*	*rep	*	*rep	*	*	*	*	*
.	.	.	.	.	16r	.	16r	.	8r	.	8r	p
.	.	.	.	.	16E\LL	.	16E/LL	.	.	.	.	.
!	!	!	!	!	!	!	!	!	!LO:TX:a:t=col 1mo	!	!	!
!	!	!	!	!	!	!	!	!	!LO:TX:b:t=dolce	!	!LO:TX:b:t=dolce	!
.	.	.	.	.	16A\	.	16A/	.	(y8ee\yy	py	(8ee\	.
.	.	.	.	.	16E\JJ	.	16E/JJ	.	.	.	.	.
*	*	*	*	*	*Xrep	*	*Xrep	*	*	*	*	*
=27	=27	=27	=27	=27	=27	=27	=27	=27	=27	=27	=27	=27
*rep	*rep	*	*rep	*	*rep	*	*rep	*	*	*	*	*
!	!LO:SIC:v:s=2c#	!	!	!	!	!	!	!	!	!	!	!
2E_ 2AA/_	2c/]	.	2AA/]	.	16r	.	16ryy	.	8cc#/Lyy	.	8cc#/L	.
.	.	.	.	.	16E\LL	.	16E/LL	.	.	.	.	.
.	.	.	.	.	16A\	.	16A/	.	8a/yy	.	8a/	.
.	.	.	.	.	16E\JJ	.	16E/JJ	.	.	.	.	.
.	.	.	.	.	16r	.	16r	.	8e/yy	.	8e/	.
.	.	.	.	.	16E\LL	.	16E/LL	.	.	.	.	.
.	.	.	.	.	16A\	.	16A/	.	8a/J)yy	.	8f#/J)	.
.	.	.	.	.	16E\JJ	.	16E/JJ	.	.	.	.	.
*Xrep	*Xrep	*	*Xrep	*	*Xrep	*	*Xrep	*	*	*	*	*
=28	=28	=28	=28	=28	=28	=28	=28	=28	=28	=28	=28	=28
*>D	*>D	*	*>D	*	*>D	*	*>D	*	*>D	*	*>D	*
*rep	*	*	*	*	*	*	*	*	*	*	*	*
2E_ 2AA/_	4.d 4.B/	.	[2AA/	.	2ryy	.	16r	.	(y4a/yy	.	(4a/	.
.	.	.	.	.	.	.	16E/LL	.	.	.	.	.
.	.	.	.	.	.	.	16B/	.	.	.	.	.
.	.	.	.	.	.	.	16E/JJ	.	.	.	.	.
!	!	!	!	!	!	!	!LO:N:vis=16.	!	!	!	!	!
.	.	.	.	.	.	.	16r	.	8g#/)yy	.	8g#/)	.
.	.	.	.	.	.	.	16E/LL	.	.	.	.	.
!	!	!	!	!	!	!	!LO:N:vis=16.	!	!	!	!	!
.	8b 8d/	.	.	.	.	.	16G#/	.	8ryy	.	8r	.
.	.	.	.	.	.	.	16E/JJ	.	.	.	.	.
*Xrep	*	*	*	*	*	*	*	*	*	*	*	*
=29	=29	=29	=29	=29	=29	=29	=29	=29	=29	=29	=29	=29
*rep	*	*	*rep	*	*	*	*	*	*	*	*	*
!	!LO:SIC:v:n=2:s=8f#	!	!	!	!	!	!	!	!	!	!	!
2E_ 2AA/_	(8ddL 8f/	.	2AA/]	.	16r	.	16r	.	2ryy	.	2r	.
.	.	.	.	.	16E\LL	.	16E/LL	.	.	.	.	.
!	!LO:SIC:v:n=1:s=8cc#	!	!	!	!	!	!	!	!	!	!	!
.	8cc 8e/	.	.	.	16F#\	.	16F#/	.	.	.	.	.
.	.	.	.	.	16E\JJ	.	16E/JJ	.	.	.	.	.
.	8b 8d/	.	.	.	16Gn\LL	.	16Gn/LL	.	.	.	.	.
.	.	.	.	.	16E\	.	16E/	.	.	.	.	.
.	8eJ 8d/)	.	.	.	16G#X\	.	16G#X/	.	.	.	.	.
.	.	.	.	.	16E\JJ	.	16E/JJ	.	.	.	.	.
*Xrep	*	*	*Xrep	*	*	*	*	*	*	*	*	*
=30	=30	=30	=30	=30	=30	=30	=30	=30	=30	=30	=30	=30
*rep	*rep	*	*	*	*	*	*	*	*	*	*	*
!	!LO:SIC:v:n=2:s=2c#	!	!	!	!	!	!	!	!	!	!	!
2E_ 2AA/_	2e [2c/	.	[2AA/	.	16r	.	16r	.	4ryy	.	4r	.
.	.	.	.	.	16E\LL	.	16E/LL	.	.	.	.	.
.	.	.	.	.	16A\	.	16A/	.	.	.	.	.
.	.	.	.	.	16E\JJ	.	16E/JJ	.	.	.	.	.
*	*	*	*	*	*rep	*	*rep	*	*	*	*	*
.	.	.	.	.	16r	.	16r	.	8ryy	.	8r	.
.	.	.	.	.	16E\LL	.	16E/LL	.	.	.	.	.
.	.	.	.	.	16A\	.	16A/	.	(y8ee\yy	.	(8ee\	.
.	.	.	.	.	16E\JJ	.	16E/JJ	.	.	.	.	.
*Xrep	*	*	*	*	*Xrep	*	*Xrep	*	*	*	*	*
=31	=31	=31	=31	=31	=31	=31	=31	=31	=31	=31	=31	=31
*rep	*	*	*rep	*	*rep	*	*rep	*	*	*	*	*
!	!LO:SIC:v:s=2c#	!	!	!	!	!	!	!	!	!	!	!
2E_ 2AA/_	2c/]	.	2AA/]	.	16r	.	16r	.	8cc#/Lyy	.	8cc#/L	.
.	.	.	.	.	16E\LL	.	16E/LL	.	.	.	.	.
.	.	.	.	.	16A\	.	16A/	.	8a/yy	.	8a/	.
.	.	.	.	.	16E\JJ	.	16E/JJ	.	.	.	.	.
.	.	.	.	.	16r	.	16r	.	8e/yy	.	8e/	.
.	.	.	.	.	16E\LL	.	16E/LL	.	.	.	.	.
.	.	.	.	.	16A\	.	16A/	.	8f#/J)yy	.	8f#/J)	.
.	.	.	.	.	16E\JJ	.	16E/JJ	.	.	.	.	.
*Xrep	*	*	*Xrep	*	*Xrep	*	*Xrep	*	*	*	*	*
=32	=32	=32	=32	=32	=32	=32	=32	=32	=32	=32	=32	=32
*rep	*	*	*	*	*	*	*	*	*	*	*	*
!	!LO:TX:t=P:problem:skreślony akord	!	!	!	!	!	!	!	!	!	!	!
2E_ 2AA/_	4.d 4.B/	.	[2AA/	.	16r	.	16r	.	(y4a/yy	.	(4a/	.
.	.	.	.	.	16E\LL	.	16E/LL	.	.	.	.	.
.	.	.	.	.	16B\	.	16B/	.	.	.	.	.
.	.	.	.	.	16E\JJ	.	16E/JJ	.	.	.	.	.
.	.	.	.	.	16r	.	16r	.	8g#/)yy	.	8g#/)	.
.	.	.	.	.	16E\LL	.	16E/LL	.	.	.	.	.
.	(8b 8d/	.	.	.	16G#\	.	16G#/	.	8ryy	.	8r	.
.	.	.	.	.	16E\JJ	.	16E/JJ	.	.	.	.	.
*Xrep	*	*	*	*	*	*	*	*	*	*	*	*
=33	=33	=33	=33	=33	=33	=33	=33	=33	=33	=33	=33	=33
*rep	*rep	*	*rep	*	*	*	*	*	*	*	*	*
!	!LO:SIC:v:n=2:s=8f#	!	!	!	!	!	!	!	!	!	!LO:TX:t=P:problem:skreślony takt	!
2E] 2AA/]	8ddL 8f/	.	2AA/]	.	16r	.	16r	.	2ryy	.	2r	.
.	.	.	.	.	16E\LL	.	16E/LL	.	.	.	.	.
!	!LO:SIC:v:n=1:s=8cc#	!	!	!	!	!	!	!	!	!	!	!
.	8cc 8e/	.	.	.	16F#\	.	16F#/	.	.	.	.	.
.	.	.	.	.	16E\JJ	.	16E/JJ	.	.	.	.	.
.	8b 8d/	.	.	.	16Gn\LL	.	16Gn/LL	.	.	.	.	.
.	.	.	.	.	16E\	.	16E/	.	.	.	.	.
.	8eJ 8d/)	.	.	.	16G#X\	.	16G#X/	.	.	.	.	.
.	.	.	.	.	16E\JJ	.	16E/JJ	.	.	.	.	.
*Xrep	*	*	*Xrep	*	*	*	*	*	*	*	*	*
!!LO:LB:g=original
=34	=34	=34	=34	=34	=34	=34	=34	=34	=34	=34	=34	=34
!	!LO:SIC:v:n=2:s=4c#	!	!	!	!	!	!	!	!	!	!	!
(>4E 4AA/	4a 4c/	.	[4AA/	.	16r	.	16r	.	4r	.	4r	.
.	.	.	.	.	16A\LL	.	16A/LL	.	.	.	.	.
.	.	.	.	.	16c#\	.	16c#/	.	.	.	.	.
.	.	.	.	.	16e\JJ	.	16e/JJ	.	.	.	.	.
8A/)	4r	.	8AA/]	.	8A\	.	8a\	.	8a/L	<	8cc#\L	<
8ryy	.	.	8r	.	8ryy	.	8r	.	16b/L	.	16dd\L	.
.	.	.	.	.	.	.	.	.	16cc#/JJ	[[	16ee\JJ	[[
=35	=35	=35	=35	=35	=35	=35	=35	=35	=35	=35	=35	=35
2r	2r	.	2r	.	4B^\	.	4f#^\	.	8.dd^\L	.	8.ff#^<\L	.
.	.	.	.	.	.	.	.	.	16cc#\Jk	.	16ee\Jk	.
.	.	.	.	.	4e^\	.	4g#^\	.	8b\L	.	8dd\L	.
.	.	.	.	.	.	.	.	.	16a\L	.	16cc#\L	.
.	.	.	.	.	.	.	.	.	16b\JJ	.	16dd\JJ	.
=36	=36	=36	=36	=36	=36	=36	=36	=36	=36	=36	=36	=36
2r	2r	.	2r	.	4c#^\	.	4g#^\	.	(4cc#\	.	(4ee\	.
.	.	.	.	.	8f#^\L	.	4a^\	.	8a/L)	.	8cc#\L)	.
.	.	.	.	.	8e\J	.	.	.	8a/J	.	8cc#\J	.
=37	=37	=37	=37	=37	=37	=37	=37	=37	=37	=37	=37	=37
2r	2r	.	2r	.	4d\	.	4f#^\	.	8.b^/L	.	8.dd^\L	.
.	.	.	.	.	.	.	.	.	16a/Jk	.	16cc#\Jk	.
.	.	.	.	.	4e\	.	4e^\	.	8g#/L	.	8b/L	.
.	.	.	.	.	.	.	.	.	16f#/L	.	16a/L	.
.	.	.	.	.	.	.	.	.	16g#/JJ	.	16b/JJ	.
=38	=38	=38	=38	=38	=38	=38	=38	=38	=38	=38	=38	=38
!	!	!LO:DY:rj	!	!	!	!	!	!	!	!	!	!
2ryy	16r	p	2ryy	.	8a\	.	16r	<	2a/	.	4.cc#\	.
.	(16A/LL	.	.	.	.	.	(16A/LL	.	.	.	.	.
!	!LO:SIC:v:s=16c#	!	!	!	!	!	!	!	!	!	!	!
.	16c/	.	.	.	8r	.	16c#/	.	.	.	.	.
.	16e/JJ	.	.	.	.	.	16e/JJ	[	.	.	.	.
.	16a/LL	.	.	.	4r	.	16a\LL	>	.	.	.	.
.	16gn/	.	.	.	.	.	16gn\	.	.	.	.	.
.	16fn/	.	.	.	.	.	16fn\	]	.	.	16dd\LL	.
.	16e/JJ)	.	.	.	.	.	16e\JJ)	.	.	.	16ee\JJ	.
=39	=39	=39	=39	=39	=39	=39	=39	=39	=39	=39	=39	=39
*k[]	*k[]	*	*k[]	*	*k[]	*	*k[]	*	*k[]	*	*k[]	*
!	!	!	!	!	!	!	!LO:TX:t=P:problem:kolejność kasowników Fn cn Gn	!	!LO:TX:t=P:problem:kolejność kasowników fn ccn gn	!	!LO:TX:t=P:problem:kolejność kasowników fn ccn gn	!
2r	16r	.	2ryy	.	2r	.	16r	<	8.dd^\L	.	8.ff^\L	.
.	(16d/LL	.	.	.	.	.	(16d\LL	.	.	.	.	.
.	16e/	.	.	.	.	.	16e\	.	.	.	.	.
.	16fn/JJ	.	.	.	.	.	16f\JJ	[	16cc\Jk	.	16ee\Jk	.
.	16gn/LL	.	.	.	.	.	16g\LL	>	8b/L	.	8dd\L	.
.	16f/	.	.	.	.	.	16f\	.	.	.	.	.
.	16e/	.	.	.	.	.	16e\	.	16a/L	.	16cc'\L	.
.	16d/JJ)	.	.	.	.	.	16d\JJ)	]	16b/JJ	.	16dd\JJ	.
=40	=40	=40	=40	=40	=40	=40	=40	=40	=40	=40	=40	=40
2r	16r	.	2r	.	2r	.	16r	]	(8cc\L	.	(4ee\	.
.	(16c/LL	.	.	.	.	.	(16c\LL	.	.	.	.	.
.	16d/	.	.	.	.	.	16d\	.	8g\	.	.	.
.	16e/JJ	.	.	.	.	.	16e\JJ	.	.	.	.	.
.	16f/LL	.	.	.	.	.	16f\LL	.	8a\J)	.	8a/L)	.
.	16A/	.	.	.	.	.	16A\)	.	.	.	.	.
!	!	!LO:DY:b=2:t=pia.	!	!	!	!	!	!	!	!	!	!
.	16e/	p	.	.	.	.	(16e\	.	8g/	.	16b/L	.
!	!	!	!	!LO:DY:t=p.	!	!	!	!	!	!	!	!
.	16a/JJ)	.	.	p	.	p	16A\JJ)	p	.	p	16cc#X/JJ	p
=41	=41	=41	=41	=41	=41	=41	=41	=41	=41	=41	=41	=41
*^	*^	*	*	*	*	*	*	*	*	*	*	*
*	*	*	*2\right	*	*	*	*	*	*	*	*	*	*	*
4D/	4D\	4a 4f/	2d\	.	4D\	.	4A 4D\	.	4F/	.	(16f/LL	.	(16dd/LL	p
.	.	.	.	.	.	.	.	.	.	.	16a/)	.	16a/)	.
.	.	.	.	.	.	.	.	.	.	.	(16f/	.	(16f/	.
.	.	.	.	.	.	.	.	.	.	.	16d/JJ)	.	16d/JJ)	.
4D 4GG/	4GG\	4b 4g/	.	.	4GG/	.	4B-X 4D\	.	4G/	.	(16d/LL	.	(16d/LL	.
.	.	.	.	.	.	.	.	.	.	.	16b-X/)	.	16b-X/)	.
.	.	.	.	.	.	.	.	.	.	.	(16g/	.	(16g/	.
.	.	.	.	.	.	.	.	.	.	.	16d/JJ)	.	16d/JJ)	.
=42	=42	=42	=42	=42	=42	=42	=42	=42	=42	=42	=42	=42	=42	=42
*2\right	*	*	*	*	*	*	*	*	*	*	*	*	*	*
2A 2AA/	2AA\	2a/	4f 4d\	.	4AA/	.	4A 4D\	.	4F/	.	(16f/LL	.	(16f/LL	.
.	.	.	.	.	.	.	.	.	.	.	16a/)	.	16a/)	.
.	.	.	.	.	.	.	.	.	.	.	(16f/	.	(16f/	.
.	.	.	.	.	.	.	.	.	.	.	16d/JJ)	.	16d/JJ)	.
.	.	.	4e\	.	4AA/	.	4AA/	.	4E/	.	(16e/LL	.	(16e/LL	.
.	.	.	.	.	.	.	.	.	.	.	16a/)	.	16a/)	.
.	.	.	.	.	.	.	.	.	.	.	(16cc#X/	.	(16cc#X/	.
.	.	.	.	.	.	.	.	.	.	.	16a/JJ)	.	16a/JJ)	.
*v	*v	*	*	*	*	*	*	*	*	*	*	*	*	*
*	*v	*v	*	*	*	*	*	*	*	*	*	*	*
!!LO:LB:g=original
=43	=43	=43	=43	=43	=43	=43	=43	=43	=43	=43	=43	=43
2ryy	2ryy	.	4.D/	<	4.D/	<	(16f\LL	<	(16f/LL	.	8.dd\L	<
.	.	.	.	.	.	.	16a\)	.	16a/	.	.	.
.	.	.	.	.	.	.	(16f\	.	16f/	.	.	.
.	.	.	.	.	.	.	16e\JJ)	.	16e/JJ)	.	16ee\Jk	.
.	.	.	.	.	.	.	(16d/LL	.	(16d/LL	.	8ff\L	.
.	.	.	.	.	.	.	16c/	.	16c/	.	.	.
.	.	.	8BB/	[[	8BB/	[[	16B/	.	16B/	.	8ffJ 8a\	[[
.	.	.	.	.	.	.	16A/JJ)	[[	16A/JJ)	.	.	.
=44	=44	=44	=44	=44	=44	=44	=44	=44	=44	=44	=44	=44
2ryy	2ryy	.	4E\	.	4E\	.	16G#X/LL	.	(16G#X/LL	.	4ee 4b\	.
.	.	.	.	.	.	.	16B/	.	16B/	.	.	.
.	.	.	.	.	.	.	16d/	.	16e/	.	.	.
.	.	.	.	.	.	.	16g#X/JJ	.	16g#X/JJ)	.	.	.
.	.	.	4r	.	4r	.	16b\LL	.	(16b/LL	.	8b\L	.
.	.	.	.	.	.	.	16g#\	.	16g#/	.	.	.
.	.	.	.	.	.	.	16e\	.	16b/	.	8dd\J	.
.	.	.	.	.	.	.	16e\JJ	.	16e/JJ)	.	.	.
=45	=45	=45	=45	=45	=45	=45	=45	=45	=45	=45	=45	=45
2AA/	2e 2A</	.	2AA/	f	(4A\	f	16a\LL	f	(16a/LL	f	(4cc^\	f
.	.	.	.	.	.	.	16d\	.	16e/	.	.	.
.	.	.	.	.	.	.	16a\	.	16a/	.	.	.
.	.	.	.	.	.	.	16d\JJ	.	16e/JJ)	.	.	.
.	.	.	.	.	8G\L	.	16d\LL	.	(16d/LL	.	8b/L)	.
.	.	.	.	.	.	.	16e\	.	16e/	.	.	.
.	.	.	.	.	8F\J)	.	16c\	.	16c/	.	8a/J	.
.	.	.	.	.	.	.	16e\JJ	.	16e/JJ)	.	.	.
=46	=46	=46	=46	=46	=46	=46	=46	=46	=46	=46	=46	=46
*	*	*	*2\right	*	*	*	*	*	*	*	*	*
2D 2DD\	2f 2A</	.	2D\	.	(8E\L	.	16d/KL	.	16d/KL	.	(8g#X/L	.
.	.	.	.	.	.	.	8A/	.	8A/	.	.	.
.	.	.	.	.	8G\	.	.	.	.	.	8b/	.
.	.	.	.	.	.	.	8A/	.	8A/	.	.	.
.	.	.	.	.	8F\)	.	.	.	.	.	8a/)	.
.	.	.	.	.	.	.	8A/	.	8A/	.	.	.
.	.	.	.	.	8D\J	.	.	.	.	.	8f/J	.
.	.	.	.	.	.	.	16B/Jk	.	16B/Jk	.	.	.
=47	=47	=47	=47	=47	=47	=47	=47	=47	=47	=47	=47	=47
*^	*	*	*	*	*	*	*	*	*	*	*	*
!	!	!	!	!	!	!	!	!	!	!	!	!LO:TX:t=P:problem:skreślony takt	!
16r	2EE\	8e/	.	2E\	.	16r	.	16r	.	8c/L	.	(8e|/L	.
(<16d#X\LL	.	.	.	.	.	(16G#X^\LL	.	(16d#X^\LL	.	.	.	.	.
16e\	.	(8a|/L	.	.	.	16A\	.	16e\	.	8e 8c|/	.	8a 8e|/	.
16B\JJ	.	.	.	.	.	16E\JJ	.	16B\JJ	.	.	.	.	.
16c/LL	.	8cc 8a|/	.	.	.	16F/LL	.	16c/LL	.	8a 8e|/	.	8cc 8e|/	.
16G#X/	.	.	.	.	.	16C#X/	.	16G#X/	.	.	.	.	.
16A/	.	8eeJ 8cc 8a|/)	.	.	.	16D/	.	16A/	.	8aJ 8e|/	.	8eeJ 8a|/)	.
16E/JJ)	.	.	.	.	.	16AA/JJ)	.	16E/JJ)	.	.	.	.	.
*v	*v	*	*	*	*	*	*	*	*	*	*	*	*
!!LO:LB:g=original
=48	=48	=48	=48	=48	=48	=48	=48	=48	=48	=48	=48	=48
*>D1	*>D1	*	*>D1	*	*>D1	*	*>D1	*	*>D1	*	*>D1	*
*	*^	*	*	*	*	*	*	*	*	*	*	*
*	*	*	*	*	*	*2\right	*	*	*	*	*	*	*
!	!LO:TX:t=P:problem:skreślony takt	!	!	!	!	!	!	!	!	!	!	!LO:TX:t=P:problem:skreślony akord	!
2E 2EE/	2ee 2b/	4a\	.	2E\	.	2E\	.	(16E^/LL	.	(16cc/LL	.	4.ee 4.b\	>
.	.	.	.	.	.	.	>	16B/	.	16B/	.	.	.
.	.	.	.	.	.	.	.	16d/	>	16d/	.	.	.
.	.	.	.	.	>	.	.	16a/JJ)	.	16a/JJ)	>	.	.
.	.	4g#X\	.	.	.	.	.	(16g#X/LL	.	(16g#X/LL	.	.	.
.	.	.	.	.	.	.	.	16e/	.	16e/	.	.	]]
!	!	!	!	!	!	!	!	!	!	!	!	!LO:TX:a:t=1m	!
.	.	.	.	.	.	.	.	16d/	.	16d/	]]	(8ee\	p
.	.	.	.	.	]	.	]]	16B/JJ)	]]	16B/JJ)	.	.	.
*	*v	*v	*	*	*	*	*	*	*	*	*	*	*
=49	=49	=49	=49	=49	=49	=49	=49	=49	=49	=49	=49	=49
*k[f#c#g#]	*k[f#c#g#]	*	*k[f#c#g#]	*	*k[f#c#g#]	*	*k[f#c#g#]	*	*k[f#c#g#]	*	*k[f#c#g#]	*
!	!	!	!	!	!	!	!LO:TX:b:t=pizzi	!	!LO:TX:t=P:problem:przy kluczu f# cc# g#	!	!LO:TX:t=P:problem:przy kluczu f# cc# g#	!
!	!LO:TX:t=P:problem:przy kluczu f# cc# g#	!	!	!LO:DY:rj	!LO:TX:b:t=pizzi	!	!LO:TX:t=P:problem:przy kluczu F# c# G#	!	!	!	!	!
2E 2AA\	8a/L	.	2AA	p	16r	.	16r	.	(8c#/L	p	8cc#\L	.
.	.	.	.	.	16E\LL	.	16E/LL	.	.	.	.	.
.	8e/J	.	.	.	16A\	.	16A/	.	8a/	.	8a\	.
.	.	.	.	.	16E\JJ	.	16E/JJ	.	.	.	.	.
*	*	*	*	*	*rep	*	*rep	*	*	*	*	*
.	4c#/	.	.	.	16r	.	16r	.	8e/	.	8e\	.
.	.	.	.	.	16E\LL	.	16E/LL	.	.	.	.	.
.	.	.	.	.	16A\	.	16A/	.	8f#/J)	.	8f#\J)	.
.	.	.	.	.	16E\JJ	.	16E/JJ	.	.	.	.	.
*	*	*	*	*	*Xrep	*	*Xrep	*	*	*	*	*
=50:|!	=50:|!	=50:|!	=50:|!	=50:|!	=50:|!	=50:|!	=50:|!	=50:|!	=50:|!	=50:|!	=50:|!	=50:|!
*>D2	*>D2	*	*>D2	*	*>D2	*	*>D2	*	*>D2	*	*>D2	*
*	*^	*	*	*	*	*	*	*	*	*	*	*
*	*	*	*	*	*	*clefF4	*	*	*	*	*	*2\right	*
!	!	!	!	!	!	!	!	!	!	!	!	!LO:TX:a:t=2da	!
!	!LO:TX:t=P:problem:skreślony akord	!	!	!	!	!	!	!	!	!	!	!LO:TX:t=P:problem:skreślona nuta	!
2E 2EE/	[4ee/	4b 4a\	.	2ryy	.	2E\	.	(16E^/LL	.	(16a/LL	.	2ee 2b\	.
.	.	.	.	.	.	.	.	16B/	.	16B/	.	.	.
.	.	.	.	.	.	.	.	16d/	.	16e/	.	.	.
.	.	.	.	.	.	.	.	16a/JJ)	.	16a/JJ)	.	.	.
.	8ee/L]	4f#X\	.	.	.	.	.	(16g#X^/LL	.	(16g#X^/LL	.	.	.
.	.	.	.	.	.	.	.	16e/	.	16e/	.	.	.
.	8e/J	.	.	.	.	.	.	16d/	.	16d/	.	.	.
.	.	.	.	.	.	.	.	16B/JJ)	.	16B/JJ)	.	.	.
=51	=51	=51	=51	=51	=51	=51	=51	=51	=51	=51	=51	=51	=51
*>E	*>E	*	*	*>E	*	*>E	*	*>E	*	*>E	*	*>E	*
*^	*	*	*	*	*	*	*	*	*	*	*	*	*
2A/	4AA\	[2a/	4c#\	.	4AA/	.	16AA/LL	.	(16A/LL	.	8.c#/L	.	8.a/L	.
.	.	.	.	.	.	.	(16E/J	.	16E/J)	.	.	.	.	.
.	.	.	.	.	.	.	[8A/J)	.	[8A/J	.	.	.	.	.
.	.	.	.	.	.	.	.	.	.	.	(16e/Jk	.	(16e/Jk	.
.	4D\	.	4f#\	.	4D/	.	(16A\LL]	.	(16A/LL]	.	8.d/L)	.	8.d/L)	.
.	.	.	.	.	.	.	16F#\J)	.	16F#/J)	.	.	.	.	.
.	.	.	.	.	.	.	[8A\J	.	[8A/J	.	.	.	.	.
.	.	.	.	.	.	.	.	.	.	.	(16f#/Jk	.	(16f#/Jk	.
=52	=52	=52	=52	=52	=52	=52	=52	=52	=52	=52	=52	=52	=52	=52
2A/	4C#\	2a/]	4e\	.	4C#/	.	(16A\LL]	.	(16A/LL]	.	8.e/L)	.	8.e/L)	.
.	.	.	.	.	.	.	16E\J)	.	16E/J)	.	.	.	.	.
.	.	.	.	.	.	.	[8A\J	.	[8A/J	.	.	.	.	.
.	.	.	.	.	.	.	.	.	.	.	(16e/Jk	.	(16e/Jk	.
!	!	!	!LO:TX:t=P:problem:skreślona nuta	!	!	!	!	!	!	!	!	!	!	!
.	4BB\	.	4d\	.	4BB/	.	(16A\LL]	.	(16A/LL]	.	8.d/L)	.	8.d/L)	.
.	.	.	.	.	.	.	16D\J)	.	16D/J)	.	.	.	.	.
.	.	.	.	.	.	.	8A\J	.	8A/J	.	.	.	.	.
.	.	.	.	.	.	.	.	.	.	.	(16d/Jk	.	(16d/Jk	.
*	*	*v	*v	*	*	*	*	*	*	*	*	*	*	*
=53	=53	=53	=53	=53	=53	=53	=53	=53	=53	=53	=53	=53	=53
[2A/	[>2AA\	[2a [>2c#/	.	[2AA/	.	[2c# [2E\	.	[2c# [>2E/	.	16c#/LL)	.	16c#/LL)	.
.	.	.	.	.	.	.	.	.	.	(16A/	.	(16A/	.
!	!	!	!	!	!	!	!	!	!LO:HP:t=dimin	!	!	!	!LO:HP:t=dimin
.	.	.	.	.	.	.	.	.	>	16c#/	.	16c#/	>
!	!	!	!	!	!	!	!	!	!	!	!LO:HP:t=dimin	!	!
.	.	.	.	.	.	.	.	.	.	16e/JJ	>	16e/JJ	.
.	.	.	.	.	.	.	.	.	.	16a/LL	.	16a/LL	.
.	.	.	.	.	.	.	.	.	.	16cc#/	.	16cc#/	.
.	.	.	.	.	.	.	.	.	.	16ee/	.	16ee/	.
.	.	.	.	.	.	.	.	.	.	16aa/JJ)	.	16aa/JJ)	.
=54	=54	=54	=54	=54	=54	=54	=54	=54	=54	=54	=54	=54	=54
8A/]	8AA\]	8a] 8c#/]	.	8AA/]	.	8c#] 8E\]	.	8c#] 8E/]	.	8a/	.	8a/	.
!	!	!	!	!	!	!	!LO:DY:t=ppp.	!	!LO:DY:t=ppp.	!	!	!	!
8r	8ryy	8r	.	8r	.	8r	ppp	8r	ppp	8r	ppp	8r	ppp
!	!	!LO:TX:t=P:problem:skreślona nuta	!	!	!	!	!	!	!	!	!	!	!
4AA/	4AA\	4A/	.	4AA/	ppp	4E\	.	4c# 4E/	.	4c#/	.	4a/	.
=55	=55	=55	=55	=55	=55	=55	=55	=55	=55	=55	=55	=55	=55
!	!	!LO:TX:t=P:problem:skreślona nuta	!	!	!	!	!	!	!	!	!	!	!
2AA;/	2AA\	2A;/	.	2AA;/	.	2AA;/	.	2c# 2E/	.	2c#;/	.	2a;/	.
*v	*v	*	*	*	*	*	*	*	*	*	*	*	*
==	==	==	==	==	==	==	==	==	==	==	==	==
*-	*-	*-	*-	*-	*-	*-	*-	*-	*-	*-	*-	*-
!!!system-decoration: ([g1]{p6})
!!!RDF**kern: > = above
!!!RDF**kern: < = below
!!!RDF**kern: | = vertical stroke
!!!ENC: Tomasz Grochalski
!!!END: 2021-04-02
!!!ENC: Andrzej Kubiczek
!!!END: 2021-04-18
